svgs/stealth.svg

<svg width="192" height="192" viewBox="0 0 192 192" fill="none" xmlns="http://www.w3.org/2000/svg"><path d="M106.27 169.947h-7.9l1.58-42.953-6.32 3.712H74.142l-9.48 18.56-11.587 10.605 7.9-29.165-29.495 7.424 10.534-11.136 18.961-9.545v-20.15l3.687-5.833L22 93.056v-7.953l5.794-5.833L170 22l-57.936 141.583-5.794 6.364Z" stroke="#000" stroke-width="12" stroke-linejoin="round"/><path d="m104.164 164.114-5.794 5.833 1.58-42.953-5.793 3.712H60.975V97.829l3.687-6.363L22 93.056l5.267-5.832 45.295-7.954v10.075l67.417-37.12-38.975 66.815h10.533l-7.373 45.074Z" stroke="#000" stroke-width="12" stroke-linejoin="round"/></svg>

<svg id="vector" xmlns="http://www.w3.org/2000/svg" width="192" height="192" viewBox="0 0 192 192"><path fill="#00000000" d="M106.27,169.95H98.37L99.95,126.99L93.63,130.71H74.14L64.66,149.27L53.07,159.87L60.98,130.71L31.48,138.13L42.01,126.99L60.98,117.45V97.3L64.66,91.47L22,93.06V85.1L27.79,79.27L170,22L112.06,163.58L106.27,169.95Z" stroke-linejoin="round" stroke-width="12" stroke="#000000" id="path_0"/><path fill="#00000000" d="M104.16,164.11L98.37,169.95L99.95,126.99L94.16,130.71H60.98V97.83L64.66,91.47L22,93.06L27.27,87.22L72.56,79.27V89.34L139.98,52.23L101,119.04H111.54L104.16,164.11Z" stroke-linejoin="round" stroke-width="12" stroke="#000000" id="path_1"/></svg>
